svgs/papara.svg

<svg xmlns="http://www.w3.org/2000/svg" viewBox="0 0 192 192"><path d="M43.5 117.438c0-47.022.437-60.238 2.217-67.072C51.808 26.981 68.546 15.8 97.158 16.003c24.86.176 40.285 9.278 47.834 28.226 3.117 7.824 3.508 11.211 3.508 30.417 0 19.217-.39 22.59-3.515 30.434-7.132 17.906-21.537 27.94-40.24 28.031-11.839.058-19.656-2.916-27.336-10.399l-5.589-5.447v24.225c0 25.157-1.274 31.474-6.774 33.584-1.327.509-6.718.926-11.979.926H43.5Zm64.837-12.782c2.569-1.428 5.986-5.529 8.03-9.636 5.07-10.191 5.24-31.51.331-41.65-4.396-9.081-10.768-13.006-21.114-13.006-9.515 0-16.268 3.98-20.139 11.867-3.735 7.611-4.585 27.293-1.619 37.497 4.857 16.705 19.736 23.141 34.511 14.928Z"/></svg>

<svg
    xmlns="http://www.w3.org/2000/svg"
    viewBox="0 0 192 192"
    id="vector">
    <g id="group">
        <path
            id="path_6"
            d="M 43.5 117.438 C 43.5 70.416 43.937 57.2 45.717 50.366 C 51.808 26.981 68.546 15.8 97.158 16.003 C 122.018 16.179 137.443 25.281 144.992 44.229 C 148.109 52.053 148.5 55.44 148.5 74.646 C 148.5 93.863 148.11 97.236 144.985 105.08 C 137.853 122.986 123.448 133.02 104.745 133.111 C 92.906 133.169 85.089 130.195 77.409 122.712 L 71.82 117.265 L 71.82 141.49 C 71.82 166.647 70.546 172.964 65.046 175.074 C 63.719 175.583 58.328 176 53.067 176 L 43.5 176 Z M 108.337 104.656 C 110.906 103.228 114.323 99.127 116.367 95.02 C 121.437 84.829 121.607 63.51 116.698 53.37 C 112.302 44.289 105.93 40.364 95.584 40.364 C 86.069 40.364 79.316 44.344 75.445 52.231 C 71.71 59.842 70.86 79.524 73.826 89.728 C 78.683 106.433 93.562 112.869 108.337 104.656 Z"
            fill="#000000"
            stroke-width="12"/>
    </g>
</svg>
